assets/Face with medical mask/Flat/face_with_medical_mask_flat.svg

<svg width="32" height="32" viewBox="0 0 32 32" fill="none" xmlns="http://www.w3.org/2000/svg">
<path d="M15.9989 29.9978C21.7505 29.9978 25.7291 27.6182 27.9359 23.9828C27.7843 23.575 27.6119 22.8903 27.6119 22.8903C27.6119 22.8903 28.5264 22.268 28.9095 22.021C29.6351 20.1969 29.9978 18.1548 29.9978 15.9989C29.9978 15.4169 29.9713 14.8433 29.9185 14.28C29.6564 14.0429 29.0808 13.5102 29.0808 13.5102C29.0808 13.5102 29.4416 12.6081 29.5976 12.2255C28.2867 6.32704 23.7549 2 15.9989 2C8.23994 2 3.7076 6.33035 2.39867 12.2323C2.52489 12.5845 2.66412 13.3439 2.66412 13.3439C2.66412 13.3439 2.32237 13.9578 2.08054 14.2666C2.02685 14.8342 2 15.4123 2 15.9989C2 18.1569 2.36341 20.2009 3.09035 22.0263C3.5002 22.2584 4.359 22.9073 4.359 22.9073C4.359 22.9073 4.1777 23.5371 4.06729 23.9917C6.27521 27.6221 10.252 29.9978 15.9989 29.9978Z" fill="#FFB02E"/>
<path d="M10.4191 16.2244C12.742 16.2244 14.6251 14.3414 14.6251 12.0185C14.6251 9.69557 12.742 7.8125 10.4191 7.8125C8.09621 7.8125 6.21313 9.69557 6.21313 12.0185C6.21313 14.3414 8.09621 16.2244 10.4191 16.2244Z" fill="white"/>
<path d="M21.5683 16.3011C23.9123 16.3011 25.8126 14.4009 25.8126 12.0568C25.8126 9.71274 23.9123 7.8125 21.5683 7.8125C19.2242 7.8125 17.324 9.71274 17.324 12.0568C17.324 14.4009 19.2242 16.3011 21.5683 16.3011Z" fill="white"/>
<path d="M11 15C12.6569 15 14 13.6569 14 12C14 10.3431 12.6569 9 11 9C9.34315 9 8 10.3431 8 12C8 13.6569 9.34315 15 11 15Z" fill="#402A32"/>
<path d="M21 15C22.6569 15 24 13.6569 24 12C24 10.3431 22.6569 9 21 9C19.3431 9 18 10.3431 18 12C18 13.6569 19.3431 15 21 15Z" fill="#402A32"/>
<path d="M7.99994 17.5886L2.07751 14.2983C2.1443 13.5785 2.25421 12.8755 2.40725 12.1936L8.91546 15.8093C9.06648 15.7169 9.23263 15.6447 9.41118 15.597C11.073 15.1527 13.8757 14.5 15.9999 14.5C18.1242 14.5 20.9269 15.1527 22.5887 15.597C22.7672 15.6447 22.9334 15.7169 23.0844 15.8093L29.5906 12.1947C29.7436 12.8766 29.8535 13.5796 29.9202 14.2995L23.9999 17.5886L23.4395 18.2808L23.9999 18.9731V22H28.9178C28.6404 22.7007 28.3096 23.3693 27.9254 24H23.9774C23.8762 24.6671 23.4405 25.2419 22.7955 25.4842C21.2197 26.0761 18.3788 27 15.9999 27C13.6211 27 10.7802 26.0761 9.20435 25.4842C8.55938 25.2419 8.12367 24.6671 8.02248 24H4.07226C3.68801 23.3693 3.35721 22.7007 3.07984 22H7.99994V18.9423L8.53138 18.2654L7.99994 17.5886Z" fill="#F4F4F4"/>
<path d="M24 17H8V19H24V17Z" fill="#AEDDFF"/>
<path d="M24 22H8V24H24V22Z" fill="#AEDDFF"/>
</svg>

<svg xmlns="http://www.w3.org/2000/svg" width="32" height="32" fill="none"><path fill="#FFB02E" d="M15.999 29.998c5.751 0 9.73-2.38 11.937-6.015-.152-.408-.324-1.093-.324-1.093s.914-.622 1.298-.869c.725-1.824 1.088-3.866 1.088-6.022 0-.582-.027-1.156-.08-1.719-.262-.237-.837-.77-.837-.77s.36-.902.517-1.284C28.287 6.327 23.755 2 15.998 2 8.24 2 3.709 6.33 2.399 12.232c.127.353.266 1.112.266 1.112s-.342.614-.583.923C2.027 14.834 2 15.412 2 15.999c0 2.158.363 4.202 1.09 6.027.41.232 1.269.881 1.269.881s-.181.63-.292 1.085c2.208 3.63 6.185 6.006 11.932 6.006Z"/><path fill="#fff" d="M10.42 16.224a4.206 4.206 0 1 0 0-8.411 4.206 4.206 0 0 0 0 8.411ZM21.568 16.301a4.244 4.244 0 1 0 0-8.489 4.244 4.244 0 0 0 0 8.49Z"/><path fill="#402A32" d="M11 15a3 3 0 1 0 0-6 3 3 0 0 0 0 6ZM21 15a3 3 0 1 0 0-6 3 3 0 0 0 0 6Z"/><path fill="#F4F4F4" d="m8 17.589-5.922-3.29c.066-.72.176-1.423.33-2.105l6.507 3.615c.151-.092.318-.164.496-.212C11.073 15.153 13.876 14.5 16 14.5c2.124 0 4.927.653 6.589 1.097.178.048.344.12.495.212l6.507-3.614c.153.682.262 1.385.33 2.104L24 17.59l-.56.692.56.692V22h4.918c-.278.7-.608 1.37-.993 2h-3.948a1.868 1.868 0 0 1-1.181 1.484C21.22 26.076 18.379 27 16 27c-2.379 0-5.22-.924-6.796-1.516A1.868 1.868 0 0 1 8.022 24h-3.95c-.384-.63-.715-1.3-.992-2H8v-3.058l.531-.677L8 17.59Z"/><path fill="#AEDDFF" d="M24 17H8v2h16v-2ZM24 22H8v2h16v-2Z"/></svg>
